X: 72
T: No_163_The_Squirrel_and_the_Mesquite_Beans.krn
N: Derived from No_163_The_Squirrel_and_the_Mesquite_Beans.krn
%%abc-version 2.0
%%abcx-abcm2ps-target-version 5.9.1 (29 Sep 2008)
%%abc-creator hum2abc beta
%%abcx-conversion-date 2019/03/15 08:37:56
%%humdrum-veritas 4203172685
%%humdrum-veritas-data 696648052
%%linebreak <none>
%%barnumbers 0
L: 1/16
M: 2/4
K: A clef=bass
[K:clef=bass][M:2/4]E,3B, B,3F, | 
A,2A,A, F,3E,/ z/ | 
F,3A, A,3E, | 
F,2F,F, E,2 z2 ||  
[M:3/8]F,2F,E,F,E, ||  
[M:2/4]F,2E,E, E,2 z2 | 
F,3F, F,3C, | 
(3F,2F,2F,2 F,3E, ||  
[M:3/8]F,E,3E,C, ||  
[M:2/4]F,E,3 E,2E,D, | 
F,F,3 E,2E,E, | 
E,4z4 |]  



